X:1
T:Winder Slide
C:Joe LaRose (ca. 1980)
L:1/8
M:4/4
I:linebreak $
K:D
V:1 treble nm="Voice" snm="Voice"
V:1
 de |"D" f2 fe f3 e | f2 a4 de | fdec d c2 |"G" d3 D d3 B |$ Bd B2 A3 D | F2 E4 FD | DB, B,3 B,3 | %8
 D3 E D2 :|$ AB- | Bd B2 A3 D | F2 E4 FE | DDFF D F3 | A3 B A2 AB |$ Bd B2 A3 D | F2 E4 FE | %16
 D2 B,2 B,3 A, | D2 ef- fd e2 | d3 D d4 |] %19
